X:1
M:4/4
K:C
L:1/8
C:trad
G |AGGE C>CCE |GFFC A,3A, |B,B,A,G, B,>GGA [1AGGF E3 :[2AGA,B, C2G,G, |
B,2B,>C DD2G, |C/2C/2 C2D E3E |DDDE ^F/2^F/2^F2^F |[M:6/4]^FDE^F G6G>G |
[M:4/4]AGGE CCCE |GFFC A,3A, |B,B,A,>G, B,GG>A |AGA,B, C3 |
